home/.icons/Gruvbox-Plus-Dark/apps/scalable/qtfm.svg

<svg width="256" height="256" style="isolation:isolate" version="1.1" viewBox="0 0 256 256" xmlns="http://www.w3.org/2000/svg">
  <g filter="url(#lV0UUkUvk8gePYrTpQCaYy4SM5dCVnwJ)">
    <linearGradient id="_lgradient_0" x2="0" y2="1" gradientTransform="matrix(244.2 0 0 228.3 5.83 11.95)" gradientUnits="userSpaceOnUse">
      <stop stop-color="#8ec07c" offset="0"/>
      <stop stop-color="#689d6a" offset="1"/>
    </linearGradient>
    <path d="m165.6 11.95c72.72 0 84.5 11.53 84.5 84.54v59.25c0 73.99-11.56 84.54-84.5 84.54h-75.25c-73.93 0-84.5-11.85-84.5-84.54v-59.25c0-73.99 11.97-84.54 84.5-84.54z" fill="url(#_lgradient_0)" stroke-width=".9992"/>
  </g>
  <g fill="#504945" filter="url(#509YRJBQCHn4CDVbTmkfqytq1XLOuWQQ)">
    <path d="m142.6 140.9h107.5v-29h-107.5v-99.92h-28.95v99.92h-107.8v29h107.8v99.42h28.95z" fill="#504945" fill-rule="evenodd" stroke-width=".9992"/>
  </g>
  <g opacity=".4">
    <linearGradient id="_lgradient_2" x1=".517" x2=".517" y2="1" gradientTransform="matrix(244.6 0 0 228.3 5.68 11.95)" gradientUnits="userSpaceOnUse">
      <stop stop-color="#ebdbb2" offset="0"/>
      <stop stop-color="#ebdbb2" stop-opacity=".098" offset=".125"/>
      <stop stop-color="#282828" stop-opacity=".098" offset=".925"/>
      <stop stop-color="#282828" stop-opacity=".498" offset="1"/>
    </linearGradient>
    <path d="m165.1 11.95c4.328-0.01 8.656 0.04 12.98 0.138 3.875 0.078 7.751 0.226 11.63 0.452 3.453 0.196 6.905 0.481 10.35 0.854 3.059 0.335 6.118 0.786 9.148 1.346 2.715 0.502 5.4 1.14 8.046 1.916 2.4 0.698 4.751 1.562 7.023 2.584 2.115 0.943 4.141 2.063 6.059 3.35 1.84 1.238 3.561 2.653 5.135 4.215 1.564 1.572 2.98 3.282 4.219 5.119 1.289 1.916 2.41 3.94 3.364 6.042 1.023 2.28 1.889 4.618 2.597 7.005 0.777 2.643 1.417 5.325 1.918 8.037 0.561 3.026 1.013 6.072 1.348 9.127 0.374 3.439 0.659 6.878 0.856 10.33 0.226 3.861 0.373 7.732 0.462 11.59 0.088 4.323 0.138 8.646 0.128 12.96v58.21c0.01 4.323-0.04 8.636-0.128 12.96-0.089 3.871-0.236 7.732-0.462 11.59-0.197 3.448-0.482 6.897-0.856 10.33-0.335 3.055-0.787 6.111-1.348 9.137-0.501 2.702-1.141 5.384-1.918 8.027-0.708 2.387-1.574 4.735-2.597 7.005-0.954 2.112-2.075 4.126-3.364 6.042-1.239 1.837-2.655 3.557-4.219 5.119-1.574 1.562-3.295 2.977-5.135 4.215-1.918 1.287-3.944 2.407-6.059 3.35-2.272 1.022-4.623 1.886-7.023 2.594-2.646 0.776-5.331 1.414-8.046 1.906-3.03 0.569-6.089 1.011-9.148 1.346-3.443 0.373-6.895 0.658-10.35 0.854-3.875 0.226-7.751 0.374-11.63 0.462-4.328 0.088-8.656 0.138-12.98 0.128h-74.13c-4.328 0.01-8.656-0.04-12.98-0.128-3.875-0.088-7.751-0.236-11.63-0.462-3.453-0.196-6.905-0.481-10.35-0.854-3.059-0.335-6.118-0.777-9.148-1.346-2.715-0.492-5.4-1.13-8.046-1.906-2.4-0.708-4.751-1.572-7.023-2.594-2.115-0.943-4.141-2.063-6.059-3.35-1.84-1.238-3.561-2.653-5.135-4.215-1.564-1.562-2.98-3.282-4.219-5.119-1.289-1.916-2.41-3.93-3.364-6.042-1.023-2.27-1.889-4.618-2.597-7.005-0.777-2.643-1.417-5.325-1.918-8.027-0.561-3.026-1.013-6.082-1.348-9.137-0.374-3.429-0.659-6.878-0.856-10.33-0.226-3.861-0.373-7.722-0.462-11.59-0.088-4.323-0.138-8.636-0.128-12.96v-58.21c-0.01-4.313 0.04-8.636 0.128-12.96 0.089-3.861 0.236-7.732 0.462-11.59 0.197-3.448 0.482-6.887 0.856-10.33 0.335-3.055 0.787-6.101 1.348-9.127 0.501-2.712 1.141-5.394 1.918-8.037 0.708-2.387 1.574-4.725 2.597-7.005 0.954-2.102 2.075-4.126 3.364-6.042 1.239-1.837 2.655-3.547 4.219-5.119 1.574-1.562 3.295-2.977 5.135-4.215 1.918-1.287 3.944-2.407 6.059-3.35 2.272-1.022 4.623-1.886 7.023-2.584 2.646-0.776 5.331-1.414 8.046-1.916 3.03-0.56 6.089-1.011 9.148-1.346 3.443-0.373 6.895-0.658 10.35-0.854 3.875-0.226 7.751-0.374 11.63-0.452 4.328-0.098 8.656-0.148 12.98-0.138zm0.01 4.009c4.298-0.01 8.597 0.039 12.9 0.127 3.827 0.089 7.653 0.236 11.48 0.452 3.384 0.197 6.767 0.472 10.13 0.845 2.971 0.315 5.932 0.747 8.863 1.297 2.577 0.472 5.134 1.081 7.653 1.818 2.223 0.648 4.396 1.454 6.501 2.397 1.909 0.855 3.738 1.867 5.469 3.026 1.623 1.091 3.138 2.338 4.525 3.724 1.387 1.385 2.636 2.898 3.738 4.519 1.16 1.729 2.174 3.547 3.029 5.443 0.945 2.112 1.751 4.284 2.4 6.494 0.748 2.515 1.348 5.06 1.83 7.634 0.541 2.928 0.974 5.875 1.298 8.842 0.374 3.36 0.65 6.73 0.846 10.11 0.217 3.822 0.374 7.634 0.453 11.46 0.088 4.293 0.137 8.577 0.137 12.87v58.21c0 4.293-0.049 8.577-0.137 12.87-0.079 3.822-0.236 7.644-0.453 11.46-0.196 3.38-0.472 6.75-0.846 10.12-0.324 2.957-0.757 5.904-1.298 8.832-0.482 2.574-1.082 5.119-1.83 7.634-0.649 2.22-1.455 4.382-2.4 6.494-0.855 1.896-1.869 3.724-3.029 5.443-1.102 1.631-2.351 3.144-3.738 4.529-1.387 1.376-2.902 2.623-4.525 3.714-1.731 1.159-3.56 2.171-5.469 3.026-2.105 0.953-4.278 1.749-6.501 2.397-2.519 0.737-5.076 1.346-7.653 1.818-2.931 0.55-5.892 0.982-8.863 1.306-3.364 0.364-6.747 0.649-10.13 0.836-3.826 0.216-7.652 0.373-11.48 0.452-4.298 0.098-8.597 0.137-12.9 0.137h-74.15c-4.298 0-8.597-0.039-12.9-0.137-3.827-0.079-7.653-0.236-11.48-0.452-3.384-0.187-6.767-0.472-10.13-0.836-2.971-0.324-5.932-0.756-8.863-1.306-2.577-0.472-5.134-1.081-7.653-1.818-2.223-0.648-4.396-1.444-6.501-2.397-1.909-0.855-3.738-1.867-5.469-3.026-1.623-1.091-3.138-2.338-4.525-3.714-1.387-1.385-2.636-2.898-3.738-4.529-1.16-1.719-2.174-3.547-3.029-5.443-0.945-2.112-1.751-4.274-2.4-6.494-0.748-2.515-1.348-5.06-1.83-7.634-0.541-2.928-0.974-5.875-1.298-8.832-0.374-3.37-0.649-6.74-0.846-10.12-0.217-3.812-0.374-7.634-0.453-11.46-0.088-4.293-0.137-8.577-0.137-12.87v-58.21c0-4.293 0.049-8.577 0.137-12.87 0.079-3.822 0.236-7.634 0.453-11.46 0.197-3.38 0.472-6.75 0.846-10.11 0.324-2.967 0.757-5.914 1.298-8.842 0.482-2.574 1.082-5.119 1.83-7.634 0.649-2.21 1.455-4.382 2.4-6.494 0.855-1.896 1.869-3.714 3.029-5.443 1.102-1.621 2.351-3.134 3.738-4.519 1.387-1.386 2.902-2.633 4.525-3.724 1.731-1.159 3.56-2.171 5.469-3.026 2.105-0.943 4.278-1.749 6.501-2.397 2.519-0.737 5.076-1.346 7.653-1.818 2.931-0.55 5.892-0.982 8.863-1.297 3.364-0.373 6.747-0.648 10.13-0.845 3.826-0.216 7.652-0.363 11.48-0.452 4.298-0.088 8.597-0.137 12.9-0.127h74.15z" fill="url(#_lgradient_2)" fill-rule="evenodd"/>
  </g>
  <path d="m91.7 61.74c-11.35 0.13-19.66-0.257-26.45 3.473-3.395 1.866-6.09 5.008-7.576 8.948-1.485 3.941-2.008 8.62-2.008 14.53v37.73h144.3v-23.36c0-5.907-0.523-10.59-2.009-14.53-0.184-0.49-0.432-0.934-0.669-1.386-0.09-0.166-0.161-0.342-0.247-0.509-1.558-3.043-3.838-5.52-6.66-7.07-6.791-3.731-15.1-3.326-26.45-3.457h-36.44l-14.63-14.37h-21.21z" fill="#d5c4a1"/>
  <path d="m164 76.12c11.35 0.13 19.65-0.257 26.44 3.474 3.396 1.866 6.091 5.008 7.576 8.948 1.486 3.94 2.009 8.62 2.009 14.53v61.08c0 5.907-0.523 10.59-2.009 14.53-1.485 3.94-4.18 7.1-7.576 8.965-6.791 3.731-15.1 3.326-26.44 3.457h-72.28c-11.35-0.131-19.66 0.274-26.45-3.457-3.396-1.865-6.091-5.025-7.576-8.965-1.483-3.94-2.006-8.62-2.006-14.53v-46.71c0-5.907 0.523-10.59 2.008-14.53 0.185-0.49 0.432-0.934 0.67-1.386 0.09-0.166 0.16-0.342 0.246-0.509 1.558-3.043 3.838-5.52 6.66-7.071 6.791-3.731 15.1-3.325 26.45-3.456h22l14.63-14.37z" fill="#ebdbb2"/>
  <g opacity=".4">
    <g opacity=".4">
      <path d="m91.7 61.74c-11.35 0.13-19.66-0.257-26.45 3.473-3.395 1.866-6.09 5.008-7.576 8.948-1.485 3.941-2.008 8.62-2.008 14.53v1.796c0-5.907 0.523-10.59 2.008-14.53 1.486-3.94 4.181-7.082 7.576-8.948 6.791-3.731 15.1-3.344 26.45-3.474h21.21l14.11 13.86 1.311-1.288h-0.793l-14.63-14.37z" fill="#282828"/>
    </g>
  </g>
  <g opacity=".2">
    <path d="m128.3 76.12-14.63 14.37h-22c-11.35 0.131-19.65-0.275-26.45 3.457-2.821 1.55-5.102 4.027-6.659 7.07-0.086 0.167-0.157 0.343-0.247 0.509-0.238 0.452-0.485 0.896-0.67 1.386-1.485 3.94-2.008 8.62-2.008 14.53v1.797c0-5.907 0.523-10.59 2.008-14.53 0.185-0.49 0.432-0.935 0.67-1.386 0.09-0.166 0.161-0.342 0.247-0.509 1.557-3.043 3.838-5.521 6.659-7.071 6.792-3.731 15.1-3.326 26.45-3.456h22l14.63-14.37h35.64c11.35 0.13 19.66-0.257 26.45 3.474 3.395 1.865 6.091 5.008 7.576 8.948s2.008 8.62 2.008 14.53v-1.797c0-5.907-0.523-10.59-2.008-14.53s-4.181-7.082-7.576-8.948c-6.791-3.731-15.1-3.343-26.45-3.474z" fill="#282828"/>
  </g>
</svg>

<svg xmlns="http://www.w3.org/2000/svg" style="isolation:isolate" width="256" height="256" viewBox="0 0 256 256">
 <g filter="url(#lV0UUkUvk8gePYrTpQCaYy4SM5dCVnwJ)">
  <linearGradient id="_lgradient_0" x1="0" x2="0" y1="0" y2="1" gradientTransform="matrix(244.648,0,0,228.338,5.43,11.577)" gradientUnits="userSpaceOnUse">
   <stop offset="0%" style="stop-color:#8ec07c"/>
   <stop offset="100%" style="stop-color:#689d6a"/>
  </linearGradient>
  <path fill="url(#_lgradient_0)" d="M 165.439 11.577 C 239.495 11.577 250.078 22.134 250.078 96.12 L 250.078 155.371 C 250.078 229.358 239.495 239.915 165.439 239.915 L 90.069 239.915 C 16.014 239.915 5.43 229.358 5.43 155.371 L 5.43 96.12 C 5.43 22.134 16.014 11.577 90.069 11.577 L 165.439 11.577 Z"/>
 </g>
 <g filter="url(#509YRJBQCHn4CDVbTmkfqytq1XLOuWQQ)">
  <linearGradient id="_lgradient_1" x1="0" x2="0" y1="0" y2="1" gradientTransform="matrix(244.648,0,0,228.338,5.43,11.577)" gradientUnits="userSpaceOnUse">
   <stop offset="0%" style="stop-color:#504945"/>
   <stop offset="100%" style="stop-color:#3c3836"/>
  </linearGradient>
  <path fill="url(#_lgradient_1)" fill-rule="evenodd" d="M 142.379 140.5 L 250.078 140.5 L 250.078 140.5 L 250.078 111.5 L 250.078 111.5 L 142.379 111.5 L 142.379 11.577 L 113.379 11.577 L 113.379 111.5 L 5.43 111.5 L 5.43 140.5 L 113.379 140.5 L 113.379 239.915 L 113.379 239.915 L 142.379 239.915 L 142.379 239.915 L 142.379 140.5 Z"/>
 </g>
 <g opacity=".4">
  <linearGradient id="_lgradient_2" x1=".517" x2=".517" y1="0" y2="1" gradientTransform="matrix(244.65,0,0,228.34,5.68,11.95)" gradientUnits="userSpaceOnUse">
   <stop offset="0%" style="stop-color:#ebdbb2"/>
   <stop offset="12.5%" stop-opacity=".098" style="stop-color:#ebdbb2"/>
   <stop offset="92.5%" stop-opacity=".098" style="stop-color:#282828"/>
   <stop offset="100%" stop-opacity=".498" style="stop-color:#282828"/>
  </linearGradient>
  <path fill="url(#_lgradient_2)" fill-rule="evenodd" d="M 165.068 11.951 C 169.396 11.941 173.724 11.991 178.052 12.089 C 181.927 12.167 185.803 12.315 189.678 12.541 C 193.131 12.737 196.583 13.022 200.026 13.395 C 203.085 13.73 206.144 14.181 209.174 14.741 C 211.889 15.243 214.574 15.881 217.22 16.657 C 219.62 17.355 221.971 18.219 224.243 19.241 C 226.358 20.184 228.384 21.304 230.302 22.591 C 232.142 23.829 233.863 25.244 235.437 26.806 C 237.001 28.378 238.417 30.088 239.656 31.925 C 240.945 33.841 242.066 35.865 243.02 37.967 C 244.043 40.247 244.909 42.585 245.617 44.972 C 246.394 47.615 247.034 50.297 247.535 53.009 C 248.096 56.035 248.548 59.081 248.883 62.136 C 249.257 65.575 249.542 69.014 249.739 72.462 C 249.965 76.323 250.112 80.194 250.201 84.055 C 250.289 88.378 250.339 92.701 250.329 97.014 L 250.329 155.226 C 250.339 159.549 250.289 163.862 250.201 168.185 C 250.112 172.056 249.965 175.917 249.739 179.778 C 249.542 183.226 249.257 186.675 248.883 190.104 C 248.548 193.159 248.096 196.215 247.535 199.241 C 247.034 201.943 246.394 204.625 245.617 207.268 C 244.909 209.655 244.043 212.003 243.02 214.273 C 242.066 216.385 240.945 218.399 239.656 220.315 C 238.417 222.152 237.001 223.872 235.437 225.434 C 233.863 226.996 232.142 228.411 230.302 229.649 C 228.384 230.936 226.358 232.056 224.243 232.999 C 221.971 234.021 219.62 234.885 217.22 235.593 C 214.574 236.369 211.889 237.007 209.174 237.499 C 206.144 238.068 203.085 238.51 200.026 238.845 C 196.583 239.218 193.131 239.503 189.678 239.699 C 185.803 239.925 181.927 240.073 178.052 240.161 C 173.724 240.249 169.396 240.299 165.068 240.289 L 90.942 240.289 C 86.614 240.299 82.286 240.249 77.958 240.161 C 74.083 240.073 70.207 239.925 66.332 239.699 C 62.879 239.503 59.427 239.218 55.984 238.845 C 52.925 238.51 49.866 238.068 46.836 237.499 C 44.121 237.007 41.436 236.369 38.79 235.593 C 36.39 234.885 34.039 234.021 31.767 232.999 C 29.652 232.056 27.626 230.936 25.708 229.649 C 23.868 228.411 22.147 226.996 20.573 225.434 C 19.009 223.872 17.593 222.152 16.354 220.315 C 15.065 218.399 13.944 216.385 12.99 214.273 C 11.967 212.003 11.101 209.655 10.393 207.268 C 9.616 204.625 8.976 201.943 8.475 199.241 C 7.914 196.215 7.462 193.159 7.127 190.104 C 6.753 186.675 6.468 183.226 6.271 179.778 C 6.045 175.917 5.898 172.056 5.809 168.185 C 5.721 163.862 5.671 159.549 5.681 155.226 L 5.681 97.014 C 5.671 92.701 5.721 88.378 5.809 84.055 C 5.898 80.194 6.045 76.323 6.271 72.462 C 6.468 69.014 6.753 65.575 7.127 62.136 C 7.462 59.081 7.914 56.035 8.475 53.009 C 8.976 50.297 9.616 47.615 10.393 44.972 C 11.101 42.585 11.967 40.247 12.99 37.967 C 13.944 35.865 15.065 33.841 16.354 31.925 C 17.593 30.088 19.009 28.378 20.573 26.806 C 22.147 25.244 23.868 23.829 25.708 22.591 C 27.626 21.304 29.652 20.184 31.767 19.241 C 34.039 18.219 36.39 17.355 38.79 16.657 C 41.436 15.881 44.121 15.243 46.836 14.741 C 49.866 14.181 52.925 13.73 55.984 13.395 C 59.427 13.022 62.879 12.737 66.332 12.541 C 70.207 12.315 74.083 12.167 77.958 12.089 C 82.286 11.991 86.614 11.941 90.942 11.951 L 165.068 11.951 Z M 165.078 15.96 C 169.376 15.95 173.675 15.999 177.973 16.087 C 181.8 16.176 185.626 16.323 189.452 16.539 C 192.836 16.736 196.219 17.011 199.583 17.384 C 202.554 17.699 205.515 18.131 208.446 18.681 C 211.023 19.153 213.58 19.762 216.099 20.499 C 218.322 21.147 220.495 21.953 222.6 22.896 C 224.509 23.751 226.338 24.763 228.069 25.922 C 229.692 27.013 231.207 28.26 232.594 29.646 C 233.981 31.031 235.23 32.544 236.332 34.165 C 237.492 35.894 238.506 37.712 239.361 39.608 C 240.306 41.72 241.112 43.892 241.761 46.102 C 242.509 48.617 243.109 51.162 243.591 53.736 C 244.132 56.664 244.565 59.611 244.889 62.578 C 245.263 65.938 245.539 69.308 245.735 72.688 C 245.952 76.51 246.109 80.322 246.188 84.144 C 246.276 88.437 246.325 92.721 246.325 97.014 C 246.325 97.014 246.325 97.014 246.325 97.014 L 246.325 155.226 C 246.325 155.226 246.325 155.226 246.325 155.226 C 246.325 159.519 246.276 163.803 246.188 168.096 C 246.109 171.918 245.952 175.74 245.735 179.552 C 245.539 182.932 245.263 186.302 244.889 189.672 C 244.565 192.629 244.132 195.576 243.591 198.504 C 243.109 201.078 242.509 203.623 241.761 206.138 C 241.112 208.358 240.306 210.52 239.361 212.632 C 238.506 214.528 237.492 216.356 236.332 218.075 C 235.23 219.706 233.981 221.219 232.594 222.604 C 231.207 223.98 229.692 225.227 228.069 226.318 C 226.338 227.477 224.509 228.489 222.6 229.344 C 220.495 230.297 218.322 231.093 216.099 231.741 C 213.58 232.478 211.023 233.087 208.446 233.559 C 205.515 234.109 202.554 234.541 199.583 234.865 C 196.219 235.229 192.836 235.514 189.452 235.701 C 185.626 235.917 181.8 236.074 177.973 236.153 C 173.675 236.251 169.376 236.29 165.078 236.29 C 165.078 236.29 165.078 236.29 165.068 236.29 L 90.942 236.29 C 90.932 236.29 90.932 236.29 90.932 236.29 C 86.634 236.29 82.335 236.251 78.037 236.153 C 74.21 236.074 70.384 235.917 66.558 235.701 C 63.174 235.514 59.791 235.229 56.427 234.865 C 53.456 234.541 50.495 234.109 47.564 233.559 C 44.987 233.087 42.43 232.478 39.911 231.741 C 37.688 231.093 35.515 230.297 33.41 229.344 C 31.501 228.489 29.672 227.477 27.941 226.318 C 26.318 225.227 24.803 223.98 23.416 222.604 C 22.029 221.219 20.78 219.706 19.678 218.075 C 18.518 216.356 17.504 214.528 16.649 212.632 C 15.704 210.52 14.898 208.358 14.249 206.138 C 13.501 203.623 12.901 201.078 12.419 198.504 C 11.878 195.576 11.445 192.629 11.121 189.672 C 10.747 186.302 10.472 182.932 10.275 179.552 C 10.058 175.74 9.901 171.918 9.822 168.096 C 9.734 163.803 9.685 159.519 9.685 155.226 C 9.685 155.226 9.685 155.226 9.685 155.226 L 9.685 97.014 C 9.685 97.014 9.685 97.014 9.685 97.014 C 9.685 92.721 9.734 88.437 9.822 84.144 C 9.901 80.322 10.058 76.51 10.275 72.688 C 10.472 69.308 10.747 65.938 11.121 62.578 C 11.445 59.611 11.878 56.664 12.419 53.736 C 12.901 51.162 13.501 48.617 14.249 46.102 C 14.898 43.892 15.704 41.72 16.649 39.608 C 17.504 37.712 18.518 35.894 19.678 34.165 C 20.78 32.544 22.029 31.031 23.416 29.646 C 24.803 28.26 26.318 27.013 27.941 25.922 C 29.672 24.763 31.501 23.751 33.41 22.896 C 35.515 21.953 37.688 21.147 39.911 20.499 C 42.43 19.762 44.987 19.153 47.564 18.681 C 50.495 18.131 53.456 17.699 56.427 17.384 C 59.791 17.011 63.174 16.736 66.558 16.539 C 70.384 16.323 74.21 16.176 78.037 16.087 C 82.335 15.999 86.634 15.95 90.932 15.96 C 90.932 15.96 90.932 15.96 90.942 15.96 L 165.068 15.96 C 165.078 15.96 165.078 15.96 165.078 15.96 Z"/>
 </g>
 <g>
  <path fill="#888888" d="M 91.697 61.745 C 80.347 61.875 72.042 61.488 65.251 65.218 C 61.856 67.084 59.161 70.226 57.675 74.166 C 56.19 78.107 55.667 82.786 55.667 88.694 L 55.667 126.422 L 200 126.422 L 200 103.066 C 200 97.159 199.477 92.479 197.991 88.539 C 197.807 88.049 197.559 87.605 197.322 87.153 C 197.232 86.987 197.161 86.811 197.075 86.644 C 195.517 83.601 193.237 81.124 190.415 79.574 C 183.624 75.843 175.319 76.248 163.969 76.117 L 127.534 76.117 L 112.907 61.745 L 91.697 61.745 L 91.697 61.745 Z"/>
  <linearGradient id="_lgradient_3" x1="0" x2="0" y1="0" y2="1" gradientTransform="matrix(144.333,0,0,114.983,55.667,76.117)" gradientUnits="userSpaceOnUse">
   <stop offset="0%" style="stop-color:#ebdbb2"/>
   <stop offset="100%" style="stop-color:#d5c4a1"/>
  </linearGradient>
  <path fill="url(#_lgradient_3)" d="M 163.97 76.117 C 175.319 76.247 183.624 75.86 190.415 79.591 C 193.811 81.457 196.506 84.599 197.991 88.539 C 199.477 92.479 200 97.159 200 103.066 L 200 164.151 C 200 170.058 199.477 174.738 197.991 178.678 C 196.506 182.618 193.811 185.778 190.415 187.643 C 183.624 191.374 175.319 190.969 163.97 191.1 L 91.695 191.1 C 80.345 190.969 72.04 191.374 65.249 187.643 C 61.853 185.778 59.158 182.618 57.673 178.678 C 56.19 174.738 55.667 170.058 55.667 164.151 L 55.667 117.439 C 55.667 111.532 56.19 106.852 57.675 102.912 C 57.86 102.422 58.107 101.978 58.345 101.526 C 58.435 101.36 58.505 101.184 58.591 101.017 C 60.149 97.974 62.429 95.497 65.251 93.946 C 72.042 90.215 80.347 90.621 91.697 90.49 L 113.699 90.49 L 128.326 76.117 L 163.97 76.117 Z"/>
  <g style="opacity:0.4">
   <g opacity=".4">
    <path fill="#282828" d="M 91.697 61.745 C 80.347 61.875 72.042 61.488 65.251 65.218 C 61.856 67.084 59.161 70.226 57.675 74.166 C 56.19 78.107 55.667 82.786 55.667 88.694 L 55.667 90.49 C 55.667 84.583 56.19 79.903 57.675 75.963 C 59.161 72.023 61.856 68.881 65.251 67.015 C 72.042 63.284 80.347 63.671 91.697 63.541 L 112.906 63.541 L 127.015 77.405 L 128.326 76.117 L 127.533 76.117 L 112.906 61.745 L 91.697 61.745 L 91.697 61.745 Z"/>
   </g>
  </g>
  <g opacity=".2">
   <path fill="#282828" d="M 128.327 76.117 L 113.7 90.49 L 91.697 90.49 C 80.347 90.621 72.043 90.215 65.251 93.947 C 62.43 95.497 60.149 97.974 58.592 101.017 C 58.506 101.184 58.435 101.36 58.345 101.526 C 58.107 101.978 57.86 102.422 57.675 102.912 C 56.19 106.852 55.667 111.532 55.667 117.439 L 55.667 119.236 C 55.667 113.329 56.19 108.649 57.675 104.709 C 57.86 104.219 58.107 103.774 58.345 103.323 C 58.435 103.157 58.506 102.981 58.592 102.814 C 60.149 99.771 62.43 97.293 65.251 95.743 C 72.043 92.012 80.347 92.417 91.697 92.287 L 113.7 92.287 L 128.327 77.914 L 163.969 77.914 C 175.319 78.044 183.624 77.657 190.415 81.388 C 193.81 83.253 196.506 86.396 197.991 90.336 C 199.476 94.276 199.999 98.956 199.999 104.863 L 199.999 103.066 C 199.999 97.159 199.476 92.479 197.991 88.539 C 196.506 84.599 193.81 81.457 190.415 79.591 C 183.624 75.86 175.319 76.248 163.969 76.117 L 128.327 76.117 L 128.327 76.117 Z"/>
  </g>
 </g>
</svg>
